assets/advantage4.svg

<svg fill="none" xmlns="http://www.w3.org/2000/svg" viewBox="0 0 59 66">
  <path d="m29.0337 65.3093-2.126-.5979C15.3474 61.323 0 54.4798 0 34.2824V7.77334l8.76992 1.39521c1.99318.3322 4.31848.26576 6.57748-.19931 3.4548-.66439 6.5774-2.05961 8.3712-3.78701L29.0337 0l5.3152 5.18223c1.7274 1.7274 4.9164 3.12262 8.3712 3.78701 2.259.39863 4.5843.46507 6.5775.19931l8.7699-1.39521V34.2824c0 20.1974-15.3474 27.0406-26.9077 30.3625l-2.1261.6644ZM2.65755 10.896v23.3864c0 18.4036 14.21785 24.7152 24.98095 27.8379l1.3952.3986 1.3953-.3986c22.3898-6.511 24.9809-19.0015 24.9809-27.8379V10.896l-5.7137.8637c-2.3253.3322-4.9165.2657-7.4411-.1994-3.9864-.7308-7.6405-2.39175-9.7665-4.51779l-3.4549-3.38838-3.4548 3.38838c-2.126 2.0596-5.7801 3.78699-9.7665 4.51779-2.5911.4651-5.1822.5316-7.44111.1994l-5.71374-.8637Z" fill="#F86A2E"/>
  <path d="m29.0337 59.7949-.6643-.1993C7.90621 53.6161 5.31509 42.9195 5.31509 34.2824V14.0186l2.65756.3986c2.59115.3987 5.51445.3322 8.37125-.1993 4.5179-.8637 8.5706-2.724 11.0953-5.18222l1.5945-1.59453 1.5946 1.59453c2.5246 2.45822 6.5774 4.38492 11.0952 5.18222 2.8569.5315 5.7802.598 8.3713.1993l2.6576-.3986v20.3303c0 16.4103-12.2912 22.1241-23.0543 25.3131l-.6644.1329ZM7.97265 17.0748v17.2076c0 7.7069 2.39175 17.2077 21.06105 22.7221 18.6693-5.448 21.0611-15.0152 21.0611-22.7221V17.0748c-2.7904.3986-5.7801.2657-8.8363-.2658-4.9165-.9301-9.3015-2.9897-12.2248-5.6473-2.9233 2.724-7.3082 4.7836-12.2247 5.6473-2.9897.598-6.0459.6644-8.83635.2658Z" fill="#fff"/>
  <path d="M30.4954 9.43431h-2.6576V22.0577h2.6576V9.43431ZM30.4954 46.64h-2.6576v11.2946h2.6576V46.64Z" fill="#fff"/>
  <path d="M29.0337 48.0352c-7.574 0-13.7528-6.1788-13.7528-13.7528 0-7.574 6.1788-13.7528 13.7528-13.7528 7.5741 0 13.7529 6.1788 13.7529 13.7528 0 7.574-6.1788 13.7528-13.7529 13.7528Zm0-24.8481c-6.1123 0-11.0952 4.9829-11.0952 11.0953s4.9829 11.0953 11.0952 11.0953c6.1124 0 11.0953-4.9829 11.0953-11.0953s-4.9829-11.0953-11.0953-11.0953Z" fill="#F86A2E"/>
  <path d="m28.17 40.129-4.9829-3.189 1.4617-2.1925 2.9233 1.8603 5.1822-6.511 2.1261 1.6609L28.17 40.129Z" fill="#F86A2E"/>
</svg>

<svg width="59" height="66" viewBox="0 0 59 66" fill="none" xmlns="http://www.w3.org/2000/svg">
<path d="M29.0337 65.3093L26.9077 64.7114C15.3474 61.323 0 54.4798 0 34.2824V7.77334L8.76992 9.16855C10.7631 9.50075 13.0884 9.43431 15.3474 8.96924C18.8022 8.30485 21.9248 6.90963 23.7186 5.18223L29.0337 0L34.3489 5.18223C36.0763 6.90963 39.2653 8.30485 42.7201 8.96924C44.9791 9.36787 47.3044 9.43431 49.2976 9.16855L58.0675 7.77334V34.2824C58.0675 54.4798 42.7201 61.323 31.1598 64.6449L29.0337 65.3093ZM2.65755 10.896V34.2824C2.65755 52.686 16.8754 58.9976 27.6385 62.1203L29.0337 62.5189L30.429 62.1203C52.8188 55.6093 55.4099 43.1188 55.4099 34.2824V10.896L49.6962 11.7597C47.3709 12.0919 44.7797 12.0254 42.2551 11.5603C38.2687 10.8295 34.6146 9.16855 32.4886 7.04251L29.0337 3.65413L25.5789 7.04251C23.4529 9.10211 19.7988 10.8295 15.8124 11.5603C13.2213 12.0254 10.6302 12.0919 8.37129 11.7597L2.65755 10.896Z" fill="#F86A2E"/>
<path d="M29.0337 59.7949L28.3694 59.5956C7.90621 53.6161 5.31509 42.9195 5.31509 34.2824V14.0186L7.97265 14.4172C10.5638 14.8159 13.4871 14.7494 16.3439 14.2179C20.8618 13.3542 24.9145 11.4939 27.4392 9.03568L29.0337 7.44115L30.6283 9.03568C33.1529 11.4939 37.2057 13.4206 41.7235 14.2179C44.5804 14.7494 47.5037 14.8159 50.0948 14.4172L52.7524 14.0186V34.3489C52.7524 50.7592 40.4612 56.473 29.6981 59.662L29.0337 59.7949ZM7.97265 17.0748V34.2824C7.97265 41.9893 10.3644 51.4901 29.0337 57.0045C47.703 51.5565 50.0948 41.9893 50.0948 34.2824V17.0748C47.3044 17.4734 44.3147 17.3405 41.2585 16.809C36.342 15.8789 31.957 13.8193 29.0337 11.1617C26.1104 13.8857 21.7255 15.9453 16.809 16.809C13.8193 17.407 10.7631 17.4734 7.97265 17.0748Z" fill="white"/>
<path d="M30.4954 9.43431H27.8378V22.0577H30.4954V9.43431Z" fill="white"/>
<path d="M30.4954 46.64H27.8378V57.9346H30.4954V46.64Z" fill="white"/>
<path d="M29.0337 48.0352C21.4597 48.0352 15.2809 41.8564 15.2809 34.2824C15.2809 26.7084 21.4597 20.5296 29.0337 20.5296C36.6078 20.5296 42.7866 26.7084 42.7866 34.2824C42.7866 41.8564 36.6078 48.0352 29.0337 48.0352ZM29.0337 23.1871C22.9214 23.1871 17.9385 28.17 17.9385 34.2824C17.9385 40.3948 22.9214 45.3777 29.0337 45.3777C35.1461 45.3777 40.129 40.3948 40.129 34.2824C40.129 28.17 35.1461 23.1871 29.0337 23.1871Z" fill="#F86A2E"/>
<path d="M28.17 40.129L23.1871 36.94L24.6488 34.7475L27.5721 36.6078L32.7543 30.0968L34.8804 31.7577L28.17 40.129Z" fill="#F86A2E"/>
</svg>
